usr/share/icons/biglinux-icons-material/scalable/apps/deepin.com.qq.office.svg

<svg width="24" height="24" viewBox="0 0 24 24" fill="none" xmlns="http://www.w3.org/2000/svg">
<path fill-rule="evenodd" clip-rule="evenodd" d="M9.59604 1.11359C9.71588 1.11486 9.83043 1.0996 9.93969 1.06779C11.3755 0.973736 12.8111 0.977551 14.2467 1.07924C15.5484 1.18066 16.8085 1.46308 18.0269 1.9265C20.0525 2.76044 21.4386 4.20689 22.185 6.26585C22.6119 7.50549 22.8639 8.78021 22.9411 10.09C23.0478 11.7347 23.0096 13.3758 22.8265 15.0133C22.6895 16.1642 22.3916 17.271 21.933 18.3336C21.0824 20.1761 19.704 21.447 17.7978 22.1463C16.2531 22.6682 14.6647 22.943 13.0325 22.9706C11.1966 23.0661 9.37913 22.9287 7.57997 22.5585C4.26839 21.8208 2.22559 19.8018 1.45158 16.5017C1.12311 15.0161 0.974199 13.5124 1.00483 11.9906C0.968176 10.3724 1.14 8.77709 1.52031 7.20471C2.33171 4.11908 4.2905 2.20701 7.39669 1.46852C8.12048 1.29157 8.8536 1.17326 9.59604 1.11359Z" fill="url(#paint0_radial_4_2)"/>
<path d="M10.3011 4.5C10.3011 3.94771 10.7488 3.5 11.3011 3.5H12.7862C13.3385 3.5 13.7862 3.94772 13.7862 4.5V8.45632C13.7862 9.22611 14.6195 9.70724 15.2862 9.32236L18.3915 7.5296C18.8698 7.2535 19.4813 7.41732 19.7575 7.89553L20.4998 9.18095C20.7761 9.65925 20.6122 10.2709 20.1339 10.5471L16.272 12.7767C15.7026 13.1055 15.6 13.8849 16.0649 14.3498L18.7998 17.0851C19.1902 17.4756 19.1902 18.1087 18.7997 18.4992L17.75 19.549C17.3594 19.9395 16.7262 19.9395 16.3357 19.549L12.7074 15.9202C12.3169 15.5297 11.6837 15.5296 11.2931 15.9202L7.66429 19.549C7.27377 19.9396 6.6406 19.9396 6.25008 19.549L5.20033 18.4993C4.8098 18.1088 4.8098 17.4756 5.20033 17.0851L7.93555 14.3499C8.4005 13.8849 8.29787 13.1054 7.72841 12.7767L3.86613 10.547C3.38779 10.2709 3.2239 9.65925 3.50009 9.18094L4.24257 7.89506C4.51873 7.4168 5.13029 7.25294 5.60857 7.52907L8.80106 9.3722C9.46773 9.75709 10.3011 9.27597 10.3011 8.50617V4.5Z" fill="#FFFEFF"/>
<defs>
<radialGradient id="paint0_radial_4_2" cx="0" cy="0" r="1" gradientUnits="userSpaceOnUse" gradientTransform="translate(12 1) rotate(90) scale(22)">
<stop stop-color="#38AEFF"/>
<stop offset="1" stop-color="#0076C7"/>
</radialGradient>
</defs>
</svg>

<svg xmlns="http://www.w3.org/2000/svg" width="24" height="24" fill="none"><path fill="url(#a)" fill-rule="evenodd" d="M9.596 1.114c.12 0 .234-.014.344-.046a31.627 31.627 0 0 1 4.307.011c1.301.102 2.561.384 3.78.848 2.025.833 3.412 2.28 4.158 4.339.427 1.24.679 2.514.756 3.824a27.94 27.94 0 0 1-.114 4.923 11.88 11.88 0 0 1-.894 3.32c-.85 1.843-2.229 3.114-4.135 3.813a15.624 15.624 0 0 1-4.765.825 21.423 21.423 0 0 1-5.453-.413c-3.312-.737-5.354-2.756-6.128-6.056a19.047 19.047 0 0 1-.447-4.511 18.491 18.491 0 0 1 .515-4.786c.812-3.086 2.77-4.998 5.877-5.736a13.953 13.953 0 0 1 2.199-.355Z" clip-rule="evenodd"/><path fill="#FFFEFF" d="M10.301 4.5a1 1 0 0 1 1-1h1.485a1 1 0 0 1 1 1v3.956a1 1 0 0 0 1.5.866l3.106-1.792a1 1 0 0 1 1.366.366L20.5 9.18a1 1 0 0 1-.366 1.366l-3.862 2.23a1 1 0 0 0-.207 1.573l2.735 2.735a1 1 0 0 1 0 1.414l-1.05 1.05a1 1 0 0 1-1.414 0l-3.629-3.629a1 1 0 0 0-1.414 0L7.664 19.55a1 1 0 0 1-1.414 0l-1.05-1.05a1 1 0 0 1 0-1.414l2.736-2.735a1 1 0 0 0-.208-1.573l-3.862-2.23A1 1 0 0 1 3.5 9.181l.743-1.286a1 1 0 0 1 1.366-.366L8.8 9.372a1 1 0 0 0 1.5-.866V4.5Z"/><defs><radialGradient id="a" cx="0" cy="0" r="1" gradientTransform="matrix(0 22 -22 0 12 1)" gradientUnits="userSpaceOnUse"><stop stop-color="#38AEFF"/><stop offset="1" stop-color="#0076C7"/></radialGradient></defs></svg>
